X:1
T:Concerto No.1 in A Minor
T:Concerto No.1 in A Minor
T:Violin
T:J.S. Bach
C:J.S. Bach
L:1/8
Q:1/4=110
M:2/4
K:C
V:1 treble nm="Violin" snm="Vln."
V:1
 z3!f! .e | a2 z .e | f2 z .d | (e/d/c/e/) (d/c/B/d/) | cA z/ (!2!A/^G/A/) | %5
 B/(A/^G/A/) c/(A/G/A/) | d/(A/^G/A/) e/(A/G/A/) | (f/g/f/)(.e/ .d/.c/.B/.A/ | .^G.E) b2- | %9
 ba/!1!^g/ ac'- | c'!1!^f a2- | ag/^f/ gb- | b/a/g/^f/ e2- | e^f/g/ (.a.c) | Ba gB | %15
 (A/B/c/)(.B/ .A/.G/.^F/.E/ | .^D).c (.B.e) | g2 (T^f2{e)} | ^f/g/a/f/ ^d/e/f/d/ | be ^f^d | %20
"^A" e/=d/c/B/ A!2!A | A/B/(c- c/B/)A/G/ | !2!^F/G/(A- A/G/)F/E/ | !1!^D!3!B TG(!2!^F/E/) | %24
 E2 z/"^Solo"!mp! (!4!e/=d/!0!e/) | a/^g/a- a/(!2!e/d/e/) | (c'b- b/)(e/d/e/) | b/a/b- b/(e/d/e/) | %28
 (d'c'- c'/)(e/d/e/) | (c'/b/a/)!2!g/ f/(d/c/d/) | (b/a/g/)f/ e/(c/B/c/) | (a/g/f/)e/ d/(B/A/B/) | %32
 (^g/a/g/)(.^f/ .e/.d/.c/.B/) | (c/d/c/)B/ A/a/e/=g/ | (=f/g/f/)(.e/ .d/.c/.B/.A/) | %35
 (B/c/B/)A/ !1!G/g/d/f/ | (e/f/e/)(.d/ .c/.B/.A/.G/) | (A/_B/A/)G/ !1!F/f/c/e/ | %38
 (d/e/d/)(.c/ .!1!=B/.A/.^G/.^F/) | (^G/A/G/)^F/!f! E/e/B/d/ |"_cresc." (c/d/c/)B/ A/a/e/=g/ | %41
 (=f/g/f/)e/ d/!4!f/!1!B/d/ |!ff! (e/d/c/e/) (d/c/B/d/) |"^B" cA z/!mf! E/A/c/ | %44
 ((f/4g/4a).f/) ((!1!^d/4e/4^f).d/) | e/B/G/(E/ ^D/E/)G/B/ | ((e/4=f/4g).e/) ((!2!^c/4d/4e).=c/) | %47
 d/A/F/(!0!D/ !1!^C/D/)F/A/ | ((d/4e/4f).d/) ((!1!B/4c/4d).c/) | (c/G/)"_cresc."A/B/ c/G/d/G/ | %50
 e/(B/c/)d/ e/c/^f/c/ |!f! g/G/B/d/ (g2- | g/.!1!c/)e/g/ (c'2- | c'/.c/)f/a/ (c'2- | c'.c) db | %55
"^C" c'/g/!3!e/c/ C/(c/!1!B/c/) | !tenuto!d/(c/B/c/) !tenuto!e/(c/B/c/) | %57
 !tenuto!f/(c/B/c/) !tenuto!g/(c/B/c/) | (a/_b/a/)(.g/ .f/.e/.d/.c/ | =BG) b2- | ba/^g/ a!4!c'- | %61
 c'!1!^f/=g/ (a/f/)(g/e/) | (^f/d/^c/!1!d/) f/d/a/f/ | (.d'.d) !3!a2- | ag/^f/ gb- | %65
 be/^f/ (g/e/)(f/^d/) | (e/=c/B/!1!c/) e/c/g/e/ | (.c'.c) !2!g2- | g^f/g/ .a(c | B)a gB | %70
 (A/B/c/)(.B/ .A/.G/.^F/.E/ | ^D)c (.B.e) | g2 (T^f2{e)} | (^f/g/a/)g/ f/a/e/a/ | %74
 (!1!^d/e/^f/)e/ d/f/=c/f/ | (!0!A/B/c/)B/ A/c/G/c/ | (^F/G/A/)G/ F/A/E/A/ | %77
 !1!^D/!4!A/!<(!B,/^C/ D/E/^F/G/!<)! | A/B/^c/^d/ e/^f/g/a/ |!f! b!0!e !1!^f^d | %80
"^D" e/=d/=c/B/ A!2!A | A/B/(c- c/.B/)A/G/ | !1!^F/!1!G/A- A/.G/!4!F/E/ | ^DB TG(!2!^F/E/) | %84
 E2 z/!mp! (!1!d/c/d/) | e/^d/e- e/(B/A/B/) | (g^f- f/)(B/A/B/) | !3!^f/e/f- f/(!1!B/A/B/) | %88
 (ag- g/)(!2!e/^d/e/) | !tenuto!^f/(e/^d/e/) !tenuto!^g/(e/d/e/) | %90
 !tenuto!!open!!4!a/(!2!e/^d/e/) !tenuto!b/(e/d/e/) | !tenuto!c'/(A/^G/A/) !tenuto!c/(A/G/A/) | %92
 !tenuto!!4!d/(!2!A/^G/A/) !tenuto!!open!e/(A/G/A/) | !tenuto!=f/(D/^C/D/) !tenuto!^F/(D/C/D/) | %94
 !tenuto!!open!!4!G/(!2!D/^C/D/) !tenuto!A/(D/C/D/) | !tenuto!B/(!3!G/^F/G/) !tenuto!B/(G/F/G/) | %96
 !tenuto!c/(G/^F/G/) !tenuto!d/(G/F/G/) |!<(! !tenuto!!4!e/(c/B/c/) !tenuto!!0!e/(c/B/c/)!<)! | %98
 !tenuto!=f/(c/B/c/) !tenuto!g/(c/B/"_cresc."c/) | (a/_b/a/)(.g/ .f/.e/.d/.c/) | %100
 (_B/A/B/)(.a/ .g/.f/.e/.d/) | (^c/d/c/)(.=B/ .A/.G/.F/.E/) |!f! F/A/d/f/ (a2- | %103
 a/g/f/a/) (g/f/e/f/) | (f/!0!e/!2!d/f/) (e/d/^c/e/) |"^E" d2 z/!p! (!3!d/^c/d/) | %106
!<(! !tenuto!e/(d/^c/d/) !tenuto!f/(d/c/d/)!<)! | !tenuto!g/(d/^c/d/) !tenuto!a/(d/c/d/) | %108
!>(! (_b4!>)! | b/)(=c/=B/c/) !tenuto!e/(c/B/c/) | !tenuto!f/(c/B/c/) !tenuto!g/(c/B/c/) | %111
!>(! a4-!>)! | a/!p!(d/!4!e/^f/!<(! g/!1!a/_b/c'/!<)! | d'/c'/_b/a/ !4!g/^f/e/d/) |!>(! g4-!>)! | %115
 g/!<(!(e/=f/g/ a/=b/!1!^c'/d'/!<)! | e'/d'/!>(!^c'/!2!b/ a/g/f/e/)!>)! | %117
!p! f/d'/(f/e/ f/)a/d'/=c'/ | (b/f/)(c'/f/) (d'/f/)(b/f/) | f/c'/(e/d/ e/)"_cresc."!1!g/c'/b/ | %120
 (a/e/)(b/e/) (c'/e/)(a/e/) | d/b/(d/c/ d/)!1!f/b/a/ | (^g/d/)(a/d/) (b/d/)(g/d/) | %123
!f! c/a/(c/B/ c/)e/a/e/ | f/a/(d/c/ d/)f/a/B/ | ca B^g |"^F" a2 z/!p! (A,/!1!^G,/!2!A,/) | %127
 !tenuto!!4!C/(A,/^G,/A,/) !tenuto!!4!^C/(A,/G,/A,/) | %128
 !tenuto!!0!D/(A,/^G,/A,/) !tenuto!!2!E/(A,/G,/!1!A,/) | %129
!mp! !tenuto!F/(!0!D/!1!^C/D/) !tenuto!^F/(D/C/D/) | %130
 !tenuto!!open!!4!G/(!2!D/^C/D/) !tenuto!A/(D/C/D/) | !tenuto!_B/(!3!G/^F/G/) !tenuto!=B/(G/F/G/) | %132
 !tenuto!c/(G/^F/G/) !tenuto!d/(G/F/G/) | !tenuto!_e/(c/=B/c/) !tenuto!!0!=e/(c/B/c/) | %134
 =f/!<(!(c/B/c/) g/(c/B/!1!c/)!<)! |!mf! (!2!_a/4_b/4c'.a/) (!1!^f/4g/4=a.f/) | %136
 g/d/_B/(G/ ^F/G/)!3!B/d/ | (_e/4f/4g.e/) (!2!^c/4d/4=e.c/) | d/A/F/(D/ ^C/D/)F/A/ | %139
 (_B/4=c/4d.B/) (!1!^G/4A/4=B.G/) | (A/E/)!<(!^F/^G/ A/!1!E/B/E/!<)! | c/(^G/!4!A/)B/ c/!0!A/d/A/ | %142
 !3!^G/(E/G/)B/!f! (e2- | e/.A/)c/e/ (a2- | a/.A/)d/f/ (a2- | a.A) E^G |"^G" A,!0!A !3!e2- | %147
 ed/^c/ df- | f!1!B/c/!>(! (d/B/)(=c/A/)!>)! | (B/!<(!G/^F/!1!G/) B/G/d/B/!<)! | (.g.G) !3!d2- | %151
 dc/B/ ce- | eA/B/!>(! (d/A/)(B/^G/)!>)! |!<(! (A/F/E/!1!F/) A/F/c/A/!<)! | .f.A !2!c2- | %155
 cB/c/ d(F | E)d cE | (D/c/B/)(.A/ .B/.A/.^G/.^F/ | !1!^G)=f (.e.a) |({bc')} c'2!>(! (Tb2{a)}!>)! | %160
!p! (b/c'/d'/)c'/ b/d'/a/d'/ | (!2!^g/a/b/)a/ g/b/f/b/ | (!1!d/e/f/)e/ d/f/!4!c/f/ | %163
 (!1!B/c/d/)c/ B/d/!0!A/d/ |!<(! !4!^G/!3!d/E/^F/ G/A/B/c/!<)! | d/e/^f/^g/ !1!a/b/!1!c'/d'/ | %166
!f! e'!1!a b!2!^g | a/=g/=f/e/ d!1!d | d/e<(f.e/)d/!2!c/ | B/c<(d.c/)B/A/ | ^Ge TcB/A/ | %171
 !fermata!A3 z |] %172

